X: 26703
T: Mike Flanagan's
R: jig
M: 6/8
K: Dmajor
|:E|DFA D2 A|GB/c/d d2 B|Add cde|fd/e/f ecA|
DFA DF/G/A|GBc dcB|Ad/d/d cde|fdc d2:|
|:e|fdc dcd|eAA AA/B/c|dcd Bcd|eAe a2 g|
f2 d dB/c/d|e2 A ABc|dcA GFG|Adc d2:|

